client/public/assets/icons/utility/dislike.svg

<?xml version="1.0"?><svg xmlns="http://www.w3.org/2000/svg" width="52" height="52" viewBox="0 0 52 52"><path fill="#fff" d="m12 29.5v-20.5c0-2.2-1.8-4-4-4h-2.5c-0.8 0-1.5 0.7-1.5 1.5v23c0 0.8 0.7 1.5 1.5 1.5h5c0.8 0 1.5-0.7 1.5-1.5z m36-3.5v-12.5c0-8.7-6.9-9.5-14.4-9.5-7.1 0-9.4 2.7-16.2 3-0.8 0-1.4 0.7-1.4 1.5v20c0 0.8 0.7 1.5 1.5 1.5 4.8 0 8.5 5.2 8.5 10.5v6c0 0.8 0.7 1.5 1.5 1.5h2.5c2.2 0 4-1.8 4-4v-10c0-2.2 1.8-4 4-4h6c2.2 0 4-1.8 4-4z"></path></svg>

<?xml version="1.0" encoding="utf-8"?>
<!-- Generator: Adobe Illustrator 20.0.0, SVG Export Plug-In . SVG Version: 6.00 Build 0)  -->
<svg version="1.1" id="Layer_1" xmlns="http://www.w3.org/2000/svg" xmlns:xlink="http://www.w3.org/1999/xlink" x="0px" y="0px"
	 width="52px" height="52px" viewBox="0 0 52 52" enable-background="new 0 0 52 52" xml:space="preserve">
<g>
	<path fill="#FFFFFF" d="M12,29.5V9c0-2.2-1.8-4-4-4H5.5C4.7,5,4,5.7,4,6.5v23C4,30.3,4.7,31,5.5,31h5C11.3,31,12,30.3,12,29.5z
		 M48,26V13.5C48,4.8,41.1,4,33.6,4c-7.1,0-9.4,2.7-16.2,3C16.6,7,16,7.7,16,8.5v20c0,0.8,0.7,1.5,1.5,1.5c4.8,0,8.5,5.2,8.5,10.5v6
		c0,0.8,0.7,1.5,1.5,1.5H30c2.2,0,4-1.8,4-4V34c0-2.2,1.8-4,4-4h6C46.2,30,48,28.2,48,26z"/>
</g>
</svg>
